static/logos/atlassian-wordmark-color.svg

<svg width="100" height="13" viewBox="0 0 100 13" fill="none" xmlns="http://www.w3.org/2000/svg">
<g clip-path="url(#clip0_1_3475)">
<path d="M3.63148 5.65008C3.5951 5.60248 3.54707 5.56509 3.49203 5.54149C3.43696 5.51787 3.37676 5.50888 3.31719 5.51534C3.25764 5.52181 3.20077 5.54354 3.15207 5.57841C3.10336 5.61329 3.06449 5.66014 3.03918 5.71444L0.0378647 11.7152C0.0105232 11.7699 -0.00238601 11.8306 0.000362738 11.8917C0.0031115 11.9528 0.021427 12.0122 0.0535704 12.0642C0.0857135 12.1162 0.130618 12.1591 0.184019 12.1889C0.23742 12.2187 0.297548 12.2343 0.35869 12.2343H4.53786C4.6048 12.2359 4.67075 12.218 4.72769 12.1828C4.78465 12.1476 4.83015 12.0966 4.85869 12.036C5.76019 10.1732 5.21385 7.3407 3.63148 5.65008Z" fill="url(#paint0_linear_1_3475)"/>
<path d="M5.83316 0.192139C5.08532 1.34283 4.64951 2.66818 4.56849 4.03814C4.48748 5.40811 4.76405 6.77559 5.37106 8.0064L7.38589 12.036C7.41568 12.0956 7.46148 12.1457 7.51814 12.1808C7.5748 12.2158 7.64009 12.2344 7.70671 12.2344H11.8851C11.9463 12.2344 12.0064 12.2187 12.0598 12.1889C12.1132 12.1592 12.1581 12.1162 12.1903 12.0642C12.2224 12.0122 12.2407 11.9528 12.2435 11.8918C12.2462 11.8307 12.2333 11.7699 12.206 11.7152C12.206 11.7152 6.58457 0.471126 6.4433 0.189888C6.41536 0.132641 6.37187 0.0844267 6.31778 0.050776C6.26369 0.0171254 6.20123 -0.000598946 6.13752 -0.000363903C6.07382 -0.000128858 6.01149 0.0180561 5.95765 0.0521049C5.90382 0.0861539 5.86067 0.134687 5.83316 0.192139Z" fill="#2684FF"/>
<path d="M54.8428 5.00353C54.8428 6.48946 55.5321 7.6692 58.2284 8.19003C59.837 8.52774 60.174 8.7874 60.174 9.32361C60.174 9.84443 59.8363 10.1816 58.7033 10.1816C57.3338 10.157 55.9918 9.79383 54.7969 9.12455V11.5448C55.6089 11.9431 56.6811 12.3874 58.6727 12.3874C61.4914 12.3874 62.6098 11.1304 62.6098 9.26226L54.8428 5.00353ZM62.6098 9.26226C62.6098 7.50053 61.6753 6.67314 59.0404 6.10654C57.5851 5.78477 57.2327 5.4632 57.2327 5.00353C57.2327 4.42192 57.7535 4.17633 58.7186 4.17633C59.883 4.17633 61.032 4.52867 62.1196 5.01892V2.7056C61.0766 2.23093 59.9408 1.99541 58.7952 2.01629C56.1909 2.01629 54.8428 3.14987 54.8428 5.00353" fill="#0052CC"/>
<path d="M91.0547 2.16943V12.2343H93.1993V4.5593L94.1033 6.59664L97.1365 12.2343H99.8327V2.16943H97.6881V8.66493L96.8761 6.7805L94.4402 2.16943H91.0547Z" fill="#0052CC"/>
<path d="M77.4142 2.16943H75.0703V12.2343H77.4142V2.16943Z" fill="#0052CC"/>
<path d="M72.3676 9.26226C72.3676 7.50053 71.4331 6.67314 68.7982 6.10654C67.3429 5.78477 66.9905 5.4632 66.9905 5.00353C66.9905 4.42192 67.5113 4.17633 68.4764 4.17633C69.6408 4.17633 70.7898 4.52867 71.8774 5.01892V2.7056C70.8346 2.23093 69.6988 1.99541 68.553 2.01629C65.9487 2.01629 64.6007 3.14987 64.6007 5.00353C64.6007 6.48946 65.29 7.6692 67.9862 8.19003C69.5948 8.52774 69.9318 8.7874 69.9318 9.32361C69.9318 9.84443 69.5941 10.1816 68.4611 10.1816C67.0916 10.157 65.7496 9.79383 64.5547 9.12455V11.5448C65.3667 11.9431 66.4389 12.3874 68.4305 12.3874C71.2492 12.3874 72.3676 11.1304 72.3676 9.26226Z" fill="#0052CC"/>
<path d="M36.6328 2.16943V12.2343H41.4504L42.209 10.0589H38.9919V2.16943H36.6328Z" fill="#0052CC"/>
<path d="M27.1172 2.16943V4.34467H29.7215V12.2343H32.0806V4.34467H34.8688V2.16943H27.1172Z" fill="#0052CC"/>
<path d="M23.6953 2.16943H20.6035L17.0938 12.2343H19.7741L20.2716 10.5392C21.4969 10.899 22.8001 10.899 24.0255 10.5392L24.523 12.2343H27.2039L23.6953 2.16943ZM22.1493 8.72422C21.7127 8.7242 21.2784 8.6617 20.8594 8.53866L22.1493 4.14636L23.4392 8.54017C23.0202 8.6627 22.5859 8.72469 22.1493 8.72422Z" fill="#0052CC"/>
<path d="M49.7576 2.16943H46.666L43.1562 12.2343H45.8371L46.3347 10.5392C47.5602 10.899 48.8632 10.899 50.0885 10.5392L50.5861 12.2343H53.2669L49.7576 2.16943ZM48.2118 8.72422C47.7752 8.7242 47.3409 8.6617 46.9219 8.53866L48.2118 4.14636L49.5017 8.54017C49.0827 8.6627 48.6484 8.72469 48.2118 8.72422Z" fill="#0052CC"/>
<path d="M85.8591 2.16943H82.7676L79.2578 12.2343H81.9387L82.4362 10.5392C83.6616 10.899 84.9647 10.899 86.1901 10.5392L86.6876 12.2343H89.3687L85.8591 2.16943ZM84.3124 8.72422C83.8758 8.7242 83.4415 8.6617 83.0225 8.53866L84.3124 4.14636L85.6023 8.54017C85.1833 8.6627 84.749 8.72469 84.3124 8.72422Z" fill="#0052CC"/>
</g>
<defs>
<linearGradient id="paint0_linear_1_3475" x1="5.27632" y1="6.57616" x2="2.10897" y2="12.0623" gradientUnits="userSpaceOnUse">
<stop stop-color="#0052CC"/>
<stop offset="0.923" stop-color="#2684FF"/>
</linearGradient>
<clipPath id="clip0_1_3475">
<rect width="100" height="12.5704" fill="white"/>
</clipPath>
</defs>
</svg>

<svg xmlns="http://www.w3.org/2000/svg" width="492.308" height="64" fill="none" viewBox="0 0 100 13"><g clip-path="url(#a)"><path fill="url(#b)" d="M3.631 5.65a.348.348 0 0 0-.592.064L.038 11.715a.359.359 0 0 0 .32.52h4.18a.345.345 0 0 0 .32-.199c.902-1.863.356-4.695-1.227-6.386Z"/><path fill="#2684FF" d="M5.833.192a7.915 7.915 0 0 0-.462 7.814l2.015 4.03a.36.36 0 0 0 .32.198h4.18a.358.358 0 0 0 .32-.519S6.585.471 6.443.19a.339.339 0 0 0-.61.002Z"/><path fill="#0052CC" d="M54.843 5.004c0 1.485.69 2.665 3.385 3.186 1.609.338 1.946.597 1.946 1.134 0 .52-.338.858-1.47.858a8.299 8.299 0 0 1-3.907-1.057v2.42c.812.398 1.884.842 3.876.842 2.818 0 3.937-1.257 3.937-3.125l-7.767-4.258Zm7.767 4.258c0-1.761-.935-2.589-3.57-3.155-1.455-.322-1.807-.644-1.807-1.103 0-.582.52-.828 1.486-.828 1.164 0 2.313.353 3.4.843V2.706a7.687 7.687 0 0 0-3.324-.69c-2.604 0-3.952 1.134-3.952 2.988M91.055 2.17v10.064h2.144V4.56l.904 2.038 3.034 5.637h2.696V2.17h-2.145v6.496l-.812-1.884-2.436-4.612h-3.385ZM77.414 2.17H75.07v10.064h2.344V2.17ZM72.368 9.262c0-1.761-.935-2.589-3.57-3.155-1.455-.322-1.808-.644-1.808-1.103 0-.582.521-.828 1.486-.828 1.165 0 2.314.353 3.401.843V2.706a7.686 7.686 0 0 0-3.324-.69c-2.604 0-3.952 1.134-3.952 2.988 0 1.485.689 2.665 3.385 3.186 1.609.338 1.946.597 1.946 1.134 0 .52-.338.858-1.47.858a8.299 8.299 0 0 1-3.907-1.057v2.42c.812.398 1.884.842 3.875.842 2.82 0 3.938-1.257 3.938-3.125ZM36.633 2.17v10.064h4.817l.759-2.175h-3.217v-7.89h-2.36ZM27.117 2.17v2.175h2.604v7.89h2.36v-7.89h2.788V2.169h-7.752ZM23.695 2.17h-3.091l-3.51 10.064h2.68l.498-1.695c1.225.36 2.528.36 3.754 0l.497 1.695h2.68L23.696 2.17ZM22.15 8.723c-.436 0-.87-.062-1.29-.185l1.29-4.393 1.29 4.394a4.578 4.578 0 0 1-1.29.184ZM49.758 2.17h-3.092l-3.51 10.064h2.681l.498-1.695c1.225.36 2.528.36 3.754 0l.497 1.695h2.68L49.759 2.17Zm-1.546 6.554c-.437 0-.871-.062-1.29-.185l1.29-4.393 1.29 4.394a4.578 4.578 0 0 1-1.29.184ZM85.86 2.17h-3.092l-3.51 10.064h2.68l.498-1.695c1.226.36 2.529.36 3.754 0l.498 1.695h2.68L85.86 2.17Zm-1.548 6.554c-.436 0-.87-.062-1.29-.185l1.29-4.393 1.29 4.394a4.578 4.578 0 0 1-1.29.184Z"/></g><defs><linearGradient id="b" x1="5.276" x2="2.109" y1="6.576" y2="12.062" gradientUnits="userSpaceOnUse"><stop stop-color="#0052CC"/><stop offset=".923" stop-color="#2684FF"/></linearGradient><clipPath id="a"><path fill="#fff" d="M0 0h100v12.57H0z"/></clipPath></defs></svg>
